src/24/panel/whatsapp-warning.svg

<svg xmlns="http://www.w3.org/2000/svg" width="24" height="24" version="1.1">
 <defs>
  <style id="current-color-scheme" type="text/css">
   .ColorScheme-Text { color:#dfdfdf; } .ColorScheme-Highlight { color:#4285f4; }
  </style>
 </defs>
 <path style="fill:currentColor" class="ColorScheme-Highlight" d="m 11.999999,3.9999428 c -0.1926,0 -0.383065,0.010178 -0.572265,0.023437 -0.0237,0.00175 -0.04651,0.00194 -0.07031,0.00391 -2.8577999,0.22552 -5.2791533,1.9428 -6.5019534,4.375 C 4.7763546,8.5597397 4.6957845,8.7175554 4.6269544,8.8808054 4.2524444,9.7265057 4.04866,10.622846 4.01172,11.562446 4.0101,11.592796 4.0091,11.623796 4.00781,11.654246 4.00534,11.744006 4.00135,11.833258 4.00195,11.923778 4.0017179,11.949168 4,11.974508 4,11.999948 c 0,0.93022 0.1657181,1.819337 0.4550781,2.648438 0.11645,0.371679 0.2502294,0.746683 0.4121094,1.126953 0.40323,0.94731 0.454075,1.204793 0.390625,1.996093 -0.044209,0.55135 -0.1940394,1.114741 -0.3808594,1.431641 -0.16938,0.28738 -0.3046875,0.584666 -0.3046875,0.660156 0,0.23342 1.3473157,0.151313 2.5410151,-0.154297 1.3984,-0.35802 1.521369,-0.357817 2.667969,0.002 0.5245303,0.1646 1.1215753,0.252873 1.7968753,0.277343 0.02825,0.0014 0.05761,0.0028 0.08594,0.0039 0.0924,0.003 0.181844,0.0078 0.277344,0.0078 0.0078,0 0.01373,5.7e-5 0.02148,0 0.01231,5.5e-5 0.02478,0 0.03711,0 0.22339,0 0.443449,-0.01152 0.662109,-0.0293 1.9778,-0.14065 3.566394,-0.871468 4.996094,-2.298828 1.178,-1.176 1.908766,-2.627284 2.197266,-4.146485 0.02658,-0.13883 0.04706,-0.280545 0.06641,-0.421875 0.0117,-0.08676 0.02438,-0.172725 0.0332,-0.259765 0.01939,-0.18667 0.03067,-0.376057 0.03711,-0.566407 0.0014,-0.04797 0.0034,-0.09459 0.0039,-0.142578 6.94e-4,-0.04469 0.0039,-0.08994 0.0039,-0.134789 0,-4.3580008 -3.450397,-7.8778414 -7.779297,-7.9941414 -0.0336,-0.0015 -0.06786,-0.00142 -0.101562,-0.00195 -0.04,-5.828e-4 -0.07904,-0.00391 -0.119141,-0.00391 z m -2.4999999,4 c 0.8284269,0 1.4999999,0.6715729 1.4999999,1.4999999 0,0.5 0,1.5000003 -0.9999999,1.5000003 0,1 2.0315629,2.945724 2.9999999,3 0,-1 1,-1 1.5,-1 0.828427,0 1.5,0.671573 1.5,1.5 0,0.828427 -0.671573,1.5 -1.5,1.5 l -0.560547,0 C 13.643138,15.993451 13.297743,15.883994 12.812499,15.706974 11.189552,15.114914 10.062842,14.164477 8.908202,12.414006 8.2356071,11.394323 8.003599,10.780668 7.999999,10.017521 l 0,-0.5175783 c 0,-0.828427 0.671573,-1.4999999 1.5000001,-1.4999999 z"/>
</svg>

<svg xmlns="http://www.w3.org/2000/svg" width="24" height="24"><defs><style id="current-color-scheme" type="text/css"></style></defs><path d="M12 4c-.193 0-.383.01-.572.023l-.07.004a7.975 7.975 0 0 0-6.503 4.375c-.079.158-.16.316-.228.479a7.274 7.274 0 0 0-.615 2.681l-.004.092c-.003.09-.007.18-.006.27L4 12c0 .93.166 1.82.455 2.648.117.372.25.747.412 1.127.403.948.454 1.205.39 1.996-.043.552-.193 1.115-.38 1.432-.17.287-.305.585-.305.66 0 .234 1.348.152 2.541-.154 1.399-.358 1.522-.358 2.668.002.525.165 1.122.253 1.797.277l.086.004c.092.003.182.008.277.008H12c.223 0 .443-.012.662-.03 1.978-.14 3.567-.87 4.996-2.298a7.93 7.93 0 0 0 2.264-4.569c.012-.086.024-.172.033-.26.02-.186.03-.375.037-.566.002-.048.004-.094.004-.142 0-.045.004-.09.004-.135a7.98 7.98 0 0 0-7.78-7.994c-.033-.002-.067-.002-.1-.002-.04 0-.08-.004-.12-.004zM9.5 8A1.5 1.5 0 0 1 11 9.5c0 .5 0 1.5-1 1.5 0 1 2.032 2.946 3 3 0-1 1-1 1.5-1a1.5 1.5 0 0 1 0 3h-.56c-.297-.007-.642-.116-1.128-.293-1.622-.592-2.75-1.543-3.904-3.293-.672-1.02-.904-1.633-.908-2.396V9.5A1.5 1.5 0 0 1 9.5 8z" fill="currentColor" color="#5294e2"/></svg>
